X: 3
T: Clorinda False
T:Tenor
C: Thomas Morley
%#Noindex
L: 1/4
M: C
%%measurenb 0
%%squarebreve
%%scale 0.9
K: F clef=treble octave=1
z4 | z4 |: z2 z B, | C3/ C/ D _E | D2 G, G | ^F G G F | 
w:A-dieu thy love tor-ments me, thy love tor-ments_
G2 G,2 | D3/ E/ F D | C/C/B,/B,/ A,2 | G, D D F | 
w:me; Clo-rin-da false, a-dieu thy love tor-ments me; Let Thyr-sis
_E B, C3/ B,/ | A, G, A,2 | [1 G,4- | G,4 :|[2  G,4- |
w:have thy heart, since he con-tents thee._ thee.
G,4 | z4 |z2 G,2 | D3 D | B, G, B,2 | 
w:_ O grief and bit-ter an-
A,2 F, F, | G,4 | A,2 G,2- | G,2 G2- | G2 F2 | 
w:guish, bit-ter an-guish; for_ thee_ un-
_E4- | E2 D2 | C4 | D2 D D/C/ | B, B, B,/C/D/_E/ | 
w:kind_ I lan-guish. Fain I a-las would hide___
F F F, F,/G,/ | A, F, F F | F F/_E/ D D | B,/A,/G,/A,/ B, C | D B, F, F,/G,/ | 
w:_ it, fain I a-las would hide it, fain I a-las would hide______ it. O but who
A, B, C2 | B,2 F, F,/G,/ | A,3/ B,/ C2- | C B, A,2 | G,3 D | 
w:can a-bide it? I can-not I a-bide,_ a-bide it. A-
_E/D/E/D/ E D |z2 z D | _E/D/E/D/ E D | z4 | 
w:dieu, a-dieu, a-dieu then, a-dieu, a-dieu, a-dieu then,
B,4 | A,2z D- | D/D/ D D D | _E D C2 | =B,2 D2- | 
w:fare-well leave_ me, death now de-sir --ing, thou
D2 A,3/ =B,/ | ^C D E2 | D3 D | C3/ A,/ B,3/ G,/ | A, ^F, G, G, | 
w:_ hast, lo, thy re-quir-ing. Thus spake Phil-is-tus, on his hook re-
D,/D,/ D B,3/ C/ | A, D C G, | A, B,/C/ D2 | D2 D2 | 
w:ly-ing, Thus spake Phil-is-tus, on his hook re - ly-ing, and
F3 E | D C B,2 | A, G, A,2 | G,3 G | F3/ D/ _E3/ C/ | 
w:sweet-ly, sweet-ly, fell_ a-dy-ing. Thus spake Phil-is-tus
D B, C/D/ _E | F G E3/ D/ | D D G, G, | A,2 A, D | C3/ A,/ B,3/ G,/ | 
w:once, thus spake__ he, thus spake he,  on his hook re-ly-ing, thus spake Phil-is-tus,
A, ^F, G, G, | D,/D,/ D B,3/ C/ | A, D C G, | A, B,/C/ D2 |
w: on his hook re-ly-ing, thus spake Phil-is-tus,  on his hook re -ly- 
D2 D2 | F3 E | D C B,2 | A, G, A,2 | G,4|]
w:ing, and sweet-ly, sweet-ly, fell a-dy - ing. 

